static/assets/images/networks/oasis.svg

<svg width="256" height="256" viewBox="0 0 256 256" fill="none" xmlns="http://www.w3.org/2000/svg">
<path d="M128 256C198.692 256 256 198.692 256 128C256 57.3075 198.692 0 128 0C57.3075 0 0 57.3075 0 128C0 198.692 57.3075 256 128 256Z" fill="#0092F6"/>
<path fill-rule="evenodd" clip-rule="evenodd" d="M200.662 72.9568C186.855 55.3136 166.622 44.1217 144.214 44.1217C100.888 44.1461 69.1935 84.393 69.1935 128.012C69.1935 158.411 89.3781 181.162 111.811 181.162C113.912 181.162 115.989 180.966 118.042 180.6C103.014 169.628 93.3857 149.663 93.3857 128.012C93.3857 93.5323 116.698 66.6521 144.189 66.6521C174.173 66.6521 195.017 96.4158 195.017 128.012C194.944 151.325 186.635 174.515 171.998 191.621C159.218 206.551 142.699 216.033 124.493 219.038C124.493 219.038 126.008 219.16 127.988 219.16C178.327 219.16 219.136 178.351 219.136 128.012C219.136 107.339 212.245 88.2785 200.638 72.9812L200.662 72.9568ZM186.831 127.988C186.831 97.5888 166.646 74.8384 144.214 74.8384C142.112 74.8384 140.035 75.0339 137.982 75.4004C153.011 86.3724 162.639 106.337 162.639 127.988C162.639 162.468 139.326 189.348 111.835 189.348C81.8516 189.348 61.0073 159.584 61.0073 127.988C61.0806 104.675 69.389 81.4851 84.0265 64.3795C96.7824 49.4488 113.326 39.9919 131.507 36.9862C131.507 36.9862 129.992 36.864 128.012 36.864C77.673 36.864 36.864 77.673 36.864 128.012C36.864 148.686 43.7551 167.746 55.3624 183.043C69.1691 200.686 89.4025 211.878 111.811 211.878C155.137 211.878 186.807 171.631 186.807 128.012L186.831 127.988Z" fill="white"/>
</svg>

<svg xmlns="http://www.w3.org/2000/svg" fill="none" viewBox="0 0 256 256"><path fill="#0092F6" d="M128 256c70.692 0 128-57.308 128-128S198.692 0 128 0 0 57.308 0 128s57.308 128 128 128"/><path fill="#fff" fill-rule="evenodd" d="M200.662 72.957c-13.807-17.643-34.04-28.835-56.448-28.835-43.326.024-75.02 40.271-75.02 83.89 0 30.399 20.184 53.15 42.617 53.15 2.101 0 4.178-.196 6.231-.562-15.028-10.972-24.656-30.937-24.656-52.588 0-34.48 23.312-61.36 50.803-61.36 29.984 0 50.828 29.764 50.828 61.36-.073 23.313-8.382 46.503-23.019 63.609-12.78 14.93-29.299 24.412-47.505 27.417 0 0 1.515.122 3.495.122 50.339 0 91.148-40.809 91.148-91.148 0-20.673-6.891-39.734-18.498-55.03zm-13.831 55.031c0-30.4-20.185-53.15-42.617-53.15-2.102 0-4.179.196-6.232.562 15.029 10.972 24.657 30.937 24.657 52.588 0 34.48-23.313 61.36-50.804 61.36-29.983 0-50.828-29.764-50.828-61.36.074-23.313 8.382-46.503 23.02-63.609 12.755-14.93 29.299-24.387 47.48-27.393 0 0-1.515-.122-3.495-.122-50.339 0-91.148 40.809-91.148 91.148 0 20.674 6.891 39.734 18.498 55.031 13.807 17.643 34.04 28.835 56.449 28.835 43.326 0 74.996-40.247 74.996-83.866z" clip-rule="evenodd"/></svg>
